img/say-hi.svg

<svg height="51" viewBox="0 0 50 51" width="50" xmlns="http://www.w3.org/2000/svg"><g fill="none" fill-rule="evenodd" transform="translate(2.298042 2.293328)"><path d="m15.3646456 37.8788959c-5.1926163-.2180796-9.06515742-.5323055-13.45712153-4.1717353-3.66869404-3.0400873-1.37053272-27.56261008 1.25344627-30.17825798 6.17868264-4.42135138 25.29541216-3.85651869 34.71823346-2.727992 12.4375738 4.44587562 7.8071289 31.61279298 2.774414 37.07798528-2.4345703.9264092-11.2046722 0-15.9516601 0-3.9384766 5.8851843-6.1884766 8.8277764-6.75 8.8277764-.5615235 0-1.4239608-2.9425921-2.5873121-8.8277764z" opacity=".4" stroke="#f99a5b" stroke-linecap="round" stroke-linejoin="round" stroke-width="3"/><path d="m14.4441452 26.7144848c.203125 0 .3789062-.0136718.5273437-.0410156.1484375-.0273437.2753906-.0761719.3808594-.1464844.1054687-.0703125.1972656-.1640625.2753906-.28125s.1484375-.265625.2109375-.4453125c.6484375-1.96875 1.2714844-3.4414062 1.8691406-4.4179687.5976563-.9765625 1.1972657-1.4648438 1.7988282-1.4648438.265625 0 .5136718.1445313.7441406.4335938.2304687.2890625.4316406.6796875.6035156 1.171875s.3066406 1.0644531.4042969 1.7167969c.0976562.6523437.1464844 1.3457031.1464844 2.0800781 0 .296875.0800781.515625.2402343.65625.1601563.140625.4238282.2109375.7910157.2109375.265625 0 .4882812-.0214844.6679687-.0644531.1796875-.0429688.3203125-.1191407.421875-.2285157s.1738281-.2558593.2167969-.4394531c.0429687-.1835937.0644531-.4199219.0644531-.7089844 0-1.0546875-.0898437-2.0097656-.2695312-2.8652343-.1796875-.8554688-.4335938-1.5839844-.7617188-2.1855469s-.7265625-1.0664063-1.1953125-1.3945313-.9921875-.4921875-1.5703125-.4921875c-.4375 0-.8652344.0839844-1.2832031.2519532-.4179688.1679687-.8144531.4140625-1.1894531.7382812-.375.3242188-.7265625.71875-1.0546875 1.1835938-.328125.4648437-.625.9902343-.890625 1.5761718-.0703125.140625-.140625.2109375-.2109375.2109375-.046875 0-.0878907-.0234375-.1230469-.0703125-.0351563-.046875-.0527344-.125-.0527344-.234375-.0625-1.0546875-.1191406-1.9628906-.1699219-2.7246093-.0507812-.7617188-.1015625-1.4335938-.1523437-2.015625-.0507813-.5820313-.1035156-1.1074219-.1582031-1.5761719s-.1171875-.9414063-.1875-1.4179688c-.0234375-.1796875-.1054688-.3203125-.2460938-.421875s-.3046875-.1523437-.4921875-.1523437c-1.09375 0-1.640625.421875-1.640625 1.265625 0 .28125.0488281.7714844.1464844 1.4707031.0976562.6992188.2109375 1.5507813.3398437 2.5546875.1289063 1.0039063.2539063 2.125.375 3.3632813.1210938 1.2382812.2050782 2.5371093.2519532 3.8964843.015625.359375.1113281.6171875.2871093.7734375.1757813.15625.4707032.234375.8847657.234375zm12.6914062-12.9609375c.421875 0 .7558594-.0957031 1.0019531-.2871093.2460938-.1914063.3691407-.4550782.3691407-.7910157 0-.1796875-.0429688-.3535156-.1289063-.5214843-.0859375-.1679688-.2011719-.3144532-.3457031-.4394532-.1445313-.125-.3105469-.2246093-.4980469-.2988281-.1875-.0742187-.3828125-.1113281-.5859375-.1113281-.4375 0-.7871094.1015625-1.0488281.3046875-.2617188.203125-.3925781.46875-.3925781.796875 0 .1953125.0429687.375.1289062.5390625s.2011719.3066406.3457031.4277344c.1445313.1210937.3164063.2148437.515625.28125.1992188.0664062.4121094.0996093.6386719.0996093zm-.3515625 12.6210938c.53125 0 .9355469-.0976563 1.2128906-.2929688.2773438-.1953125.4160157-.4882812.4160157-.8789062 0-.375-.0078125-.7890625-.0234375-1.2421875s-.0351563-.9238281-.0585938-1.4121094c-.0234375-.4882812-.0488281-.984375-.0761719-1.4882812-.0273437-.5039063-.0585937-.9921875-.09375-1.4648438-.0351562-.4726562-.0703125-.9199219-.1054687-1.3417969-.0351563-.421875-.0683594-.8007812-.0996094-1.1367187-.046875-.484375-.421875-.7265625-1.125-.7265625-.390625 0-.7050781.0878906-.9433594.2636719-.2382812.1757812-.3574218.4003906-.3574218.6738281 0 .1796875.0253906.5136719.0761718 1.0019531.0507813.4882813.1054688 1.0996094.1640625 1.8339844.0585938.734375.1132813 1.5722656.1640625 2.5136719.0507813.9414062.0761719 1.9511718.0761719 3.0292968 0 .21875.0683594.3847657.2050781.4980469.1367188.1132813.3261719.1699219.5683594.1699219zm6.6679688-4.1484375c.140625 0 .2519531-.0351563.3339843-.1054688.0820313-.0703125.1464844-.1621093.1933594-.2753906.046875-.1132812.078125-.2421875.09375-.3867187.015625-.1445313.0234375-.2949219.0234375-.4511719 0-.8203125-.0253906-1.6230469-.0761719-2.4082031-.0507812-.7851563-.1210937-1.5585938-.2109375-2.3203125-.0898437-.7617188-.1933593-1.5136719-.3105468-2.2558594s-.2460938-1.4804688-.3867188-2.2148438c-.1171875-.578125-.78125-.8671875-1.9921875-.8671875-.2734375 0-.4785156.0742188-.6152344.2226563-.1367187.1484375-.2050781.3320312-.2050781.5507812 0 .0859375.0097656.171875.0292969.2578125.0195312.0859375.0449219.1835938.0761719.2929688.4296875 1.59375.7695312 3.171875 1.0195312 4.734375s.40625 3.0585937.46875 4.4882812c.015625.1796875.0644531.3183594.1464844.4160157.0820312.0976562.2246094.1582031.4277344.1816406zm-.6328125 4.4648437c.421875 0 .7558593-.0957031 1.0019531-.2871093.2460937-.1914063.3691406-.4550782.3691406-.7910157 0-.1796875-.0429687-.3535156-.1289062-.5214843-.0859375-.1679688-.2011719-.3144532-.3457032-.4394532-.1445312-.125-.3105468-.2246093-.4980468-.2988281-.1875-.0742187-.3828125-.1113281-.5859375-.1113281-.4375 0-.7871094.1015625-1.0488282.3046875-.2617187.203125-.3925781.46875-.3925781.796875 0 .1953125.0429688.375.1289063.5390625s.2011718.3066406.3457031.4277344c.1445312.1210937.3164062.2148437.515625.28125.1992187.0664062.4121094.0996093.6386719.0996093z" fill="#ff8737" fill-rule="nonzero"/></g></svg>

<?xml version="1.0" encoding="UTF-8"?>
<svg width="50px" height="51px" viewBox="0 0 50 51" version="1.1" xmlns="http://www.w3.org/2000/svg" xmlns:xlink="http://www.w3.org/1999/xlink">
    <!-- Generator: Sketch 64 (93537) - https://sketch.com -->
    <title>Group 2</title>
    <desc>Created with Sketch.</desc>
    <g id="Plasticpanda" stroke="none" stroke-width="1" fill="none" fill-rule="evenodd">
        <g id="MacBook-13&quot;" transform="translate(-575.000000, -431.000000)">
            <g id="Group-2" transform="translate(577.298042, 433.293328)">
                <path d="M15.3646456,37.8788959 C10.1720293,37.6608163 6.29948818,37.3465904 1.90752407,33.7071606 C-1.76116997,30.6670733 0.536991346,6.14455052 3.16097034,3.52890262 C9.33965298,-0.892448759 28.4563825,-0.327616071 37.8792038,0.800910616 C50.3167776,5.24678624 45.6863327,32.4137036 40.6536178,37.8788959 C38.2190475,38.8053051 29.4489456,37.8788959 24.7019577,37.8788959 C20.7634811,43.7640802 18.5134811,46.7066723 17.9519577,46.7066723 C17.3904342,46.7066723 16.5279969,43.7640802 15.3646456,37.8788959 Z" id="Path-3" stroke="#F99A5B" stroke-width="3" opacity="0.4" stroke-linecap="round" stroke-linejoin="round"></path>
                <path d="M14.4441452,26.7144848 C14.6472702,26.7144848 14.8230514,26.700813 14.9714889,26.6734692 C15.1199264,26.6461255 15.2468795,26.5972973 15.3523483,26.5269848 C15.457817,26.4566723 15.5496139,26.3629223 15.6277389,26.2457348 C15.7058639,26.1285473 15.7761764,25.9801098 15.8386764,25.8004223 C16.4871139,23.8316723 17.1101608,22.3590161 17.707817,21.3824536 C18.3054733,20.4058911 18.9050827,19.9176098 19.5066452,19.9176098 C19.7722702,19.9176098 20.020317,20.0621411 20.2507858,20.3512036 C20.4812545,20.6402661 20.6824264,21.0308911 20.8543014,21.5230786 C21.0261764,22.0152661 21.160942,22.5875317 21.2585983,23.2398755 C21.3562545,23.8922192 21.4050827,24.5855786 21.4050827,25.3199536 C21.4050827,25.6168286 21.4851608,25.8355786 21.645317,25.9762036 C21.8054733,26.1168286 22.0691452,26.1871411 22.4363327,26.1871411 C22.7019577,26.1871411 22.9246139,26.1656567 23.1043014,26.122688 C23.2839889,26.0797192 23.4246139,26.0035473 23.5261764,25.8941723 C23.6277389,25.7847973 23.7000045,25.638313 23.7429733,25.4547192 C23.785942,25.2711255 23.8074264,25.0347973 23.8074264,24.7457348 C23.8074264,23.6910473 23.7175827,22.7359692 23.5378952,21.8805005 C23.3582077,21.0250317 23.1043014,20.2965161 22.7761764,19.6949536 C22.4480514,19.0933911 22.0496139,18.6285473 21.5808639,18.3004223 C21.1121139,17.9722973 20.5886764,17.8082348 20.0105514,17.8082348 C19.5730514,17.8082348 19.145317,17.8922192 18.7273483,18.060188 C18.3093795,18.2281567 17.9128952,18.4742505 17.5378952,18.7984692 C17.1628952,19.122688 16.8113327,19.5172192 16.4832077,19.982063 C16.1550827,20.4469067 15.8582077,20.9722973 15.5925827,21.5582348 C15.5222702,21.6988598 15.4519577,21.7691723 15.3816452,21.7691723 C15.3347702,21.7691723 15.2937545,21.7457348 15.2585983,21.6988598 C15.223442,21.6519848 15.2058639,21.5738598 15.2058639,21.4644848 C15.1433639,20.4097973 15.0867233,19.5015942 15.035942,18.7398755 C14.9851608,17.9781567 14.9343795,17.3062817 14.8835983,16.7242505 C14.832817,16.1422192 14.7800827,15.6168286 14.7253952,15.1480786 C14.6707077,14.6793286 14.6082077,14.2066723 14.5378952,13.7301098 C14.5144577,13.5504223 14.4324264,13.4097973 14.2918014,13.3082348 C14.1511764,13.2066723 13.9871139,13.1558911 13.7996139,13.1558911 C12.7058639,13.1558911 12.1589889,13.5777661 12.1589889,14.4215161 C12.1589889,14.7027661 12.207817,15.1930005 12.3054733,15.8922192 C12.4031295,16.591438 12.5164108,17.4430005 12.645317,18.4469067 C12.7742233,19.450813 12.8992233,20.5719067 13.020317,21.810188 C13.1414108,23.0484692 13.2253952,24.3472973 13.2722702,25.7066723 C13.2878952,26.0660473 13.3835983,26.3238598 13.5593795,26.4801098 C13.7351608,26.6363598 14.0300827,26.7144848 14.4441452,26.7144848 Z M27.1355514,13.7535473 C27.5574264,13.7535473 27.8914108,13.6578442 28.1375045,13.466438 C28.3835983,13.2750317 28.5066452,13.0113598 28.5066452,12.6754223 C28.5066452,12.4957348 28.4636764,12.3219067 28.3777389,12.153938 C28.2918014,11.9859692 28.176567,11.8394848 28.0320358,11.7144848 C27.8875045,11.5894848 27.7214889,11.4898755 27.5339889,11.4156567 C27.3464889,11.341438 27.1511764,11.3043286 26.9480514,11.3043286 C26.5105514,11.3043286 26.160942,11.4058911 25.8992233,11.6090161 C25.6375045,11.8121411 25.5066452,12.0777661 25.5066452,12.4058911 C25.5066452,12.6012036 25.5496139,12.7808911 25.6355514,12.9449536 C25.7214889,13.1090161 25.8367233,13.2515942 25.9812545,13.372688 C26.1257858,13.4937817 26.2976608,13.5875317 26.4968795,13.653938 C26.6960983,13.7203442 26.9089889,13.7535473 27.1355514,13.7535473 Z M26.7839889,26.3746411 C27.3152389,26.3746411 27.7195358,26.2769848 27.9968795,26.0816723 C28.2742233,25.8863598 28.4128952,25.5933911 28.4128952,25.2027661 C28.4128952,24.8277661 28.4050827,24.4137036 28.3894577,23.9605786 C28.3738327,23.5074536 28.3543014,23.0367505 28.3308639,22.5484692 C28.3074264,22.060188 28.2820358,21.5640942 28.254692,21.060188 C28.2273483,20.5562817 28.1960983,20.0680005 28.160942,19.5953442 C28.1257858,19.122688 28.0906295,18.6754223 28.0554733,18.2535473 C28.020317,17.8316723 27.9871139,17.4527661 27.9558639,17.1168286 C27.9089889,16.6324536 27.5339889,16.3902661 26.8308639,16.3902661 C26.4402389,16.3902661 26.1257858,16.4781567 25.8875045,16.653938 C25.6492233,16.8297192 25.5300827,17.0543286 25.5300827,17.3277661 C25.5300827,17.5074536 25.5554733,17.841438 25.6062545,18.3297192 C25.6570358,18.8180005 25.7117233,19.4293286 25.770317,20.1637036 C25.8289108,20.8980786 25.8835983,21.7359692 25.9343795,22.6773755 C25.9851608,23.6187817 26.0105514,24.6285473 26.0105514,25.7066723 C26.0105514,25.9254223 26.0789108,26.091438 26.2156295,26.2047192 C26.3523483,26.3180005 26.5418014,26.3746411 26.7839889,26.3746411 Z M33.4519577,22.2262036 C33.5925827,22.2262036 33.7039108,22.1910473 33.785942,22.1207348 C33.8679733,22.0504223 33.9324264,21.9586255 33.9793014,21.8453442 C34.0261764,21.732063 34.0574264,21.6031567 34.0730514,21.4586255 C34.0886764,21.3140942 34.0964889,21.1637036 34.0964889,21.0074536 C34.0964889,20.1871411 34.0710983,19.3844067 34.020317,18.5992505 C33.9695358,17.8140942 33.8992233,17.0406567 33.8093795,16.278938 C33.7195358,15.5172192 33.6160202,14.7652661 33.4988327,14.0230786 C33.3816452,13.2808911 33.2527389,12.5426098 33.1121139,11.8082348 C32.9949264,11.2301098 32.3308639,10.9410473 31.1199264,10.9410473 C30.8464889,10.9410473 30.6414108,11.0152661 30.504692,11.1637036 C30.3679733,11.3121411 30.2996139,11.4957348 30.2996139,11.7144848 C30.2996139,11.8004223 30.3093795,11.8863598 30.3289108,11.9722973 C30.348442,12.0582348 30.3738327,12.1558911 30.4050827,12.2652661 C30.8347702,13.8590161 31.1746139,15.4371411 31.4246139,16.9996411 C31.6746139,18.5621411 31.8308639,20.0582348 31.8933639,21.4879223 C31.9089889,21.6676098 31.957817,21.8062817 32.0398483,21.903938 C32.1218795,22.0015942 32.2644577,22.0621411 32.4675827,22.0855786 L32.4675827,22.0855786 L33.4519577,22.2262036 Z M32.8191452,26.6910473 C33.2410202,26.6910473 33.5750045,26.5953442 33.8210983,26.403938 C34.067192,26.2125317 34.1902389,25.9488598 34.1902389,25.6129223 C34.1902389,25.4332348 34.1472702,25.2594067 34.0613327,25.091438 C33.9753952,24.9234692 33.8601608,24.7769848 33.7156295,24.6519848 C33.5710983,24.5269848 33.4050827,24.4273755 33.2175827,24.3531567 C33.0300827,24.278938 32.8347702,24.2418286 32.6316452,24.2418286 C32.1941452,24.2418286 31.8445358,24.3433911 31.582817,24.5465161 C31.3210983,24.7496411 31.1902389,25.0152661 31.1902389,25.3433911 C31.1902389,25.5387036 31.2332077,25.7183911 31.3191452,25.8824536 C31.4050827,26.0465161 31.520317,26.1890942 31.6648483,26.310188 C31.8093795,26.4312817 31.9812545,26.5250317 32.1804733,26.591438 C32.379692,26.6578442 32.5925827,26.6910473 32.8191452,26.6910473 Z" id="hi!" fill="#FF8737" fill-rule="nonzero"></path>
            </g>
        </g>
    </g>
</svg>
